file/philips.svg

<svg clip-rule="evenodd" fill-rule="evenodd" stroke-linejoin="round" stroke-miterlimit="1.41421" viewBox="0 0 560 400" xmlns="http://www.w3.org/2000/svg"><path d="m360.92 371.16h-21.48v-27.97h-22.36v27.97h-21.48v-70.37h21.48v27.68h22.36v-27.68h21.48zm74.72-56.23v56.23h-21.48v-70.37h38.84l3.23 14.14zm-37.36 56.23h-21.48v-70.37h21.48zm87.08 0h-21.47v-70.37h21.47zm105.9-17.96c0 3.83 3.83 5.6 10 5.6 6.77 0 14.13-1.48 19.13-3.55l-1.76 15.32c-5.6 1.18-10.6 2.06-19.71 2.06-17.36 0-29.13-6.85-29.13-21.2 0-24.73 33.55-19.73 33.55-31.21 0-4.41-3.25-6.76-11.19-6.76-7.05 0-17.95 2.35-24.42 5.59l2.36-16.2c6.47-2.36 15.29-3.53 22.36-3.53 17.94 0 32.65 5.89 32.65 23.56 0 23.54-33.84 19.13-33.84 30.32m-60.59-35.63c19.99 0 32.65 10.31 32.65 28.27 0 19.72-13.53 26.79-35.6 26.79-8.53 0-18.83-.59-26.18-1.47v-70.37h21.48v16.78zm11.47 27.97c0-9.12-4.41-15.31-15.6-15.31h-3.52v29.08c1.25.07 2.42.07 3.52.07 10.59 0 15.6-5 15.6-13.84m-287.72-27.97c20 0 32.65 10.31 32.65 28.27 0 19.72-13.53 26.79-35.59 26.79-8.54 0-18.83-.59-26.19-1.47v-70.37h21.48v16.78zm11.48 27.97c0-9.12-4.42-15.31-15.6-15.31h-3.53v29.08c1.25.07 2.43.07 3.53.07 10.59 0 15.6-5 15.6-13.84" fill="#0b5ed7" fill-rule="nonzero" transform="matrix(1.22766 0 0 -1.22766 -241.996 612.464)"/></svg>

<?xml version="1.0" encoding="UTF-8" standalone="no"?>
<!DOCTYPE svg PUBLIC "-//W3C//DTD SVG 1.1//EN" "http://www.w3.org/Graphics/SVG/1.1/DTD/svg11.dtd">
<svg width="100%" height="100%" viewBox="0 0 560 400" version="1.1" xmlns="http://www.w3.org/2000/svg" xmlns:xlink="http://www.w3.org/1999/xlink" xml:space="preserve" xmlns:serif="http://www.serif.com/" style="fill-rule:evenodd;clip-rule:evenodd;stroke-linejoin:round;stroke-miterlimit:1.41421;">
    <g id="path2859" transform="matrix(1.22766,0,0,-1.22766,-241.996,612.464)">
        <path d="M360.92,371.16L339.44,371.16L339.44,343.19L317.08,343.19L317.08,371.16L295.6,371.16L295.6,300.79L317.08,300.79L317.08,328.47L339.44,328.47L339.44,300.79L360.92,300.79L360.92,371.16ZM435.64,314.93L435.64,371.16L414.16,371.16L414.16,300.79L453,300.79L456.23,314.93L435.64,314.93ZM398.28,371.16L376.8,371.16L376.8,300.79L398.28,300.79L398.28,371.16ZM485.36,371.16L463.89,371.16L463.89,300.79L485.36,300.79L485.36,371.16ZM591.26,353.2C591.26,357.03 595.09,358.8 601.26,358.8C608.03,358.8 615.39,357.32 620.39,355.25L618.63,370.57C613.03,371.75 608.03,372.63 598.92,372.63C581.56,372.63 569.79,365.78 569.79,351.43C569.79,326.7 603.34,331.7 603.34,320.22C603.34,315.81 600.09,313.46 592.15,313.46C585.1,313.46 574.2,315.81 567.73,319.05L570.09,302.85C576.56,300.49 585.38,299.32 592.45,299.32C610.39,299.32 625.1,305.21 625.1,322.88C625.1,346.42 591.26,342.01 591.26,353.2M530.67,317.57C550.66,317.57 563.32,327.88 563.32,345.84C563.32,365.56 549.79,372.63 527.72,372.63C519.19,372.63 508.89,372.04 501.54,371.16L501.54,300.79L523.02,300.79L523.02,317.57L530.67,317.57ZM542.14,345.54C542.14,336.42 537.73,330.23 526.54,330.23L523.02,330.23L523.02,359.31C524.27,359.38 525.44,359.38 526.54,359.38C537.13,359.38 542.14,354.38 542.14,345.54M254.42,317.57C274.42,317.57 287.07,327.88 287.07,345.84C287.07,365.56 273.54,372.63 251.48,372.63C242.94,372.63 232.65,372.04 225.29,371.16L225.29,300.79L246.77,300.79L246.77,317.57L254.42,317.57ZM265.9,345.54C265.9,336.42 261.48,330.23 250.3,330.23L246.77,330.23L246.77,359.31C248.02,359.38 249.2,359.38 250.3,359.38C260.89,359.38 265.9,354.38 265.9,345.54" style="fill:rgb(11,94,215);fill-rule:nonzero;"/>
    </g>
</svg>
